X: 18462
T: Hurry The Jug
R: jig
M: 6/8
K: Edorian
|:B,|EB,E G2 A|BAF GFE|FDD ADD|FEA DB,A,|
B,EE G2 A|BAF G2A|BcB AFA|GEE E2:|
|:B|BAB d2 A|dfe d2 A|BAB dAA|BAG FED|
Eee ede|fef def|g2 e f2 f|edB d2B|
AFA d2 A|BAG FED|EB,E G2 A|BAF G2A|
BcB AFA|GEE E2:|

